X: 33241
T: Pull The Knife And Stick It Again
R: jig
M: 6/8
K: Aminor
A2B cBA|G2A GEG|A2B cBA|d2e dBG|
A2B cBA|G2A GAB|c2A BAG|EAA A3||
age edB|AGE G3|age edB|def gab|
age edB|AGE GAB|c2A BAG|EAA A3||

